X: 6517
T: Cat's Meow, The
R: jig
M: 6/8
K: Cmajor
F2(G4|G5)F|:EGc ~e3|ged cAG|~A3 AGE|cGE ~D3|
EGc ~e3|ged cAG|(3ABc d dcA|GED C3:|
|:ecA ~G3|CEG c2e|ede fed|ced cAG|
ecA ~G3|CEG c3|f2f gfd|dcB c3:|
EGc g3|gfe gfe|GBd f3|fed fed|
dce fdf|geg agf|e2g fed|dcB c3|
EGc gag|gfe ~g3|FAd f3|fed ~f3|
~e3 ~f3|g2g agf|g2c f2B|cGE C3||

